svgs/sharp-light/squirrel.svg

<svg xmlns="http://www.w3.org/2000/svg" viewBox="0 0 512 512"><!--! Font Awesome Pro 6.6.0 by @fontawesome - https://fontawesome.com License - https://fontawesome.com/license (Commercial License) Copyright 2024 Fonticons, Inc. --><path d="M32 144C32 82.1 82.1 32 144 32s112 50.1 112 112l0 32 0 16 32 0 0-16 0-32C288 64.5 223.5 0 144 0S0 64.5 0 144s64.5 144 144 144l6.5 0 7.5 13.6c-18.7 22.3-30 51-30 82.4l0 112 0 16 16 0 112 0 112 0 112 0 16 0 0-32-16 0-40.4 0c15.2-17 24.4-39.4 24.4-64c0-28.4-12.4-54-32-71.6l0-88.4 24 0 7.5 0 4.8-5.8 40-48 3.7-4.4 0-5.8 0-46.6 0-9.1-7.8-4.7-56-33.4L444.4 96 440 96l-24 0 0-32-32 0 0 48 0 16 16 0 35.6 0L480 154.5l0 31.7L448.5 224 416 224l-16 0 0 16 0 85.5c-10-3.5-20.8-5.5-32-5.5c-10 0-19.7 1.5-28.8 4.4l9.6 30.5c6-1.9 12.5-2.9 19.2-2.9c35.3 0 64 28.7 64 64s-28.7 64-64 64l-112 0-96 0 0-96c0-26.9 11-51.1 28.8-68.6l8.7-8.5-5.9-10.6-17.6-32-4.6-8.3-9.5 0-16 0C82.1 256 32 205.9 32 144zM352 64l-32 0 0 16 0 76.2c0 34.6-6.1 56.6-17.1 76.2c-10.1 18.1-24.5 34.6-44.4 57.5c-2.8 3.2-5.7 6.5-8.7 10l-11.2 13c-20.1 23.3-30.6 57.4-30.6 87l0 16 32 0 0-16c0-23.4 8.5-49.6 22.8-66.1l11.2-13c2.9-3.4 5.8-6.7 8.6-9.9c0 0 0 0 0 0s0 0 0 0c19.6-22.5 36.3-41.7 48.2-63c14.1-25.3 21.2-52.8 21.2-91.9L352 80l0-16zm80 96a16 16 0 1 0 -32 0 16 16 0 1 0 32 0z"/></svg>

<svg xmlns="http://www.w3.org/2000/svg" viewBox="0 0 512 512"><!--! Font Awesome Pro 6.4.0 by @fontawesome - https://fontawesome.com License - https://fontawesome.com/license (Commercial License) Copyright 2023 Fonticons, Inc. --><path d="M32 144C32 82.1 82.1 32 144 32s112 50.1 112 112v32 16h32V176 144C288 64.5 223.5 0 144 0S0 64.5 0 144s64.5 144 144 144h6.5l7.5 13.6c-18.7 22.3-30 51-30 82.4V496v16h16H256 368 480h16V480H480 439.6c15.2-17 24.4-39.4 24.4-64c0-28.4-12.4-54-32-71.6V256h24 7.5l4.8-5.8 40-48 3.7-4.4V192 145.4v-9.1l-7.8-4.7-56-33.4L444.4 96H440 416V64H384v48 16h16 35.6L480 154.5v31.7L448.5 224H416 400v16 85.5c-10-3.5-20.8-5.5-32-5.5c-10 0-19.7 1.5-28.8 4.4l9.6 30.5c6-1.9 12.5-2.9 19.2-2.9c35.3 0 64 28.7 64 64s-28.7 64-64 64H256 160V384c0-26.9 11-51.1 28.8-68.6l8.7-8.5-5.9-10.6-17.6-32-4.6-8.3H160 144C82.1 256 32 205.9 32 144zM352 64H320V80v76.2c0 34.6-6.1 56.6-17.1 76.2c-10.1 18.1-24.5 34.6-44.4 57.5c-2.8 3.2-5.7 6.5-8.7 10l-11.2 13c-20.1 23.3-30.6 57.4-30.6 87v16h32V400c0-23.4 8.5-49.6 22.8-66.1l11.2-13c2.9-3.4 5.8-6.7 8.6-9.9l0 0 0 0c19.6-22.5 36.3-41.7 48.2-63c14.1-25.3 21.2-52.8 21.2-91.9V80 64zm80 96a16 16 0 1 0 -32 0 16 16 0 1 0 32 0z"/></svg>
